X:380
T: Road to Cree
S: B.Breathnach: "Ceol Rince na hEireann" II/83 (gan ainm)
Z: B.Black
L: 1/8
M: 6/8
R: jig
K: Ador
G |: EAA A2B|c2d efe|dBA B2A|GEE E2D|
EAA A2B|c2d e2f|1 gfe dcB|cBA BAG :|
|2 gfe dBG|B2A A3||
a2g efg|a2g e2f|g2e d2e|g2a bag|
a2g efg|a2g e2f|gfe dBG|1 BAA A2a :|2 BAA A2||

